X:1
T:Title
%%score ( 1 2 ) ( 3 4 )
L:1/8
M:3/4
K:F
V:1 treble nm="Choir Aahs, ChrchOrg"
V:2 treble 
V:3 bass nm="Choir Aahs, ChrchOrg-2"
V:4 bass 
V:1
 [CF]2 [CF]2 [CF]2 | D3 E [A,F]2 | [DG]2 [CA]2 [CG]2 | [A,F]6 | [CA]2 [FA]2 [EA]2 | [Fd]4 [Gc]2 | %6
w: By~Johannes~Eccard,~1597 * *||||||
 [Gc]4 [G=B]2 | [Gc]6 | [FA]2 [FA]2 [EA]2 | [FB]4 [_EA]2 | [DG]4 [D^F]2 | [DG]6 | %12
w: ||||||
 [FA]2 [FA]2 [EA]2 | [DG]4 F-[B,F] | [CF]4 [CE]2 | [CF]6 |] %16
w: ||||
V:2
 x6 | B,4 z2 | x6 | x6 | x6 | x6 | x6 | x6 | x6 | x6 | x6 | x6 | x6 | z2 z2 .A,2 | x6 | x6 |] %16
V:3
 [F,A,]2 [F,A,]2 [A,,F,]2 | F,4 z2 | F,4 z2 | [F,,F,]6 | [F,A,]2 [F,C]2 [A,C]2 | A,3 =B, [E,C]2 | %6
 [G,D]4 [G,D]2 | [C,E]6 | [F,C]2 [D,D]2 [C,E]2 | [B,,D]4 [C,C]2 | [D,B,]4 [D,A,]2 | [G,,B,]6 | %12
 [D,D]2 [F,C]2 [A,,C]2 | [B,,B,]4 [D,F,]2 | [C,G,]4 [C,G,]2 | [F,,A,]6 |] %16
V:4
 x6 | B,,3 C, [D,F,]2 | B,,2 A,,2 [C,E,]2 | x6 | x6 | D,4 z2 | x6 | x6 | x6 | x6 | x6 | x6 | x6 | %13
 x6 | x6 | x6 |] %16

